!!!COM: Anon.
!!!OTL: Song of the Coyote (a)
!!!ODT: <1918//
!!!MPN: Marolipa [Buffalo Bull Head, Ben Benson]
!!!MLC: Fort Berthold Reservation, North Dakota, United States of America
!! Song was recorded during either the summer of 1912, 1915, or 1918.
!!!AGN: monody
!!!AST: Songs Connected With Eagle Catching
!!!AMT: irregular
!!!RWG: Transcribed pitches, durations, and meters are only approximate.
!! Drum not recorded.
**kern
*ICvox
*Imale
*clefF4
*k[b-e-]
*M2/4
*MM144
=1-
4d
4d
*M3/4
=2
2d
(8f
8d)
=3
2d
4c
=4
(2.c
=5
4B-)
4c
4c
=6
2c
(8e-
8c)
=7
2c
4B-
=8
2G
4F
*M2/4
=9
2d
*M3/4
=10
2d
4f
=11
2d
4c
=12
2.c
*M2/4
=13
4r
4d
=14
2d
*M3/4
=15
(4d
4c)
4c
*M2/4
=16
(8c
8B-)
8B-
8B-
=17
4c
4c
*M3/4
=18
2c
(8e-
8c)
=19
(4c
4B-)
4G
=20
2.F
*M2/4
=21
4B-
4B-
*M3/4
=22
2B-
(8d
8B-)
=23
(4B-
4G)
4F
=24
(2F
4En)
*M2/4
=25
4F
4F
*M3/4
=26
2F
(8G
8F)
=27
2F
4F
=28
2.F
=29
4r
4F
4F
=30
(4F
4D)
4F
=31
(4F
4D)
4F
=32
(4F
4D)
4F
=33
(4F
4D)
4r
==
*-
!!!CNT: Mandan
!!!TXO: Mandan
!!!OCY: United States
!!!OCL: Frances Densmore
!!!YOR: Frances Densmore, "Mandan and Hidatsa Music",
!!!YOR: Bulletin 80, page 72, No. 21
!!!PPR: Smithsonian Institution, Bureau of American Ethnology
!!!PPR: Government Printing Office
!!!PDT: 1923
!!!PPP: Washington, DC, United States of America
!!!YEC: Electronic Copyright 2000 David Huron
!!!YER: August 2000
!!!YEN: United States of America
!!!ENC: David Huron
!!!RDT: August 16, 2000
!!!EEV: Release 1.0
!!!AIN: tom, vox
